X:1
T:157 - Vivifica-nos Senhor
T:Letra: Henry Maxwell Wright (1849-1931)
T:Música: John Robson Sweney (1837-1899) 
M:3/4
L:1/8
Q:1/4=100
K:Abmaj
V:1
EE | "Eb7"d3B AB | "Ab"c2 A2 cd | e3A GA | "Eb"B4 cB | "Ab"A3E AG | "Db"G2 F2 Bc | "Bbm"d3B "Eb7"AG | "Ab"A4 |]
w: 1.~Man-da, oh, man-daas ri-cas chu-vas, Tua bên-ção, Sal-va-dor! Im-plo-ra-mos, es-pe-ra-mos, Vi-vi-fi-ca-nos, Se-nhor!
W: 
W:
W: Manda, oh, manda as ricas chuvas,
W: Tua bênção, Salvador!
W: Imploramos, esperamos,
W: Vivifica-nos, Senhor!
W:         
W: 





